X:224
T: Kranzsingen
N: A0271C
O: Europa, Mitteleuropa, Deutschland
N: Trillers Singbuechlein 1555 "Aus frebden Landen komm ich her".
R: Romanze, Ballade, Lied
M: 4/1
L: 1/2
K: F
F | c2c2d2c2 | c3BA2z
G | A2c2c2Ac | BAG2F2z
C | F2G2A2G2 | c3BA2z
c | c2c2c2A2 | B2G2F3

